; generated by PrusaSlicer 2.6.0-beta1+MacOS-x64 on 2023-05-17 at 10:31:20 UTC


;
;
; 

; external perimeters extrusion width = 0.65mm
; perimeters extrusion width = 0.65mm
; infill extrusion width = 0.65mm
; solid infill extrusion width = 0.65mm
; top infill extrusion width = 0.60mm
; support material extrusion width = 0.55mm
; first layer extrusion width = 0.65mm

; external perimeters extrusion width = 0.65mm
; perimeters extrusion width = 0.65mm
; infill extrusion width = 0.65mm
; solid infill extrusion width = 0.65mm
; top infill extrusion width = 0.60mm
; support material extrusion width = 0.55mm
; first layer extrusion width = 0.65mm

; external perimeters extrusion width = 0.65mm
; perimeters extrusion width = 0.65mm
; infill extrusion width = 0.65mm
; solid infill extrusion width = 0.65mm
; top infill extrusion width = 0.60mm
; support material extrusion width = 0.55mm
; first layer extrusion width = 0.65mm

; external perimeters extrusion width = 0.65mm
; perimeters extrusion width = 0.65mm
; infill extrusion width = 0.65mm
; solid infill extrusion width = 0.65mm
; top infill extrusion width = 0.60mm
; support material extrusion width = 0.55mm
; first layer extrusion width = 0.65mm

M73 P0 R75
M73 Q0 S75
M201 X1000 Y1000 Z200 E5000 ; sets maximum accelerations, mm/sec^2
M203 X200 Y200 Z12 E120 ; sets maximum feedrates, mm / sec
M204 S1250 T1250 ; sets acceleration (S) and retract acceleration (R), mm/sec^2
M205 X8.00 Y8.00 Z0.40 E4.50 ; sets the jerk limits, mm/sec
M205 S0 T0 ; sets the minimum extruding and travel feed rate, mm/sec
;TYPE:Custom
M862.3 P "MK3S" ; printer model check
M862.1 P0.6 ; nozzle diameter check
M115 U3.12.2 ; tell printer latest fw version
G90 ; use absolute coordinates
M83 ; extruder relative mode
M104 S215 ; set extruder temp
M140 S60 ; set bed temp
M190 S60 ; wait for bed temp
M109 S215 ; wait for extruder temp
G28 W ; home all without mesh bed level
G80 ; mesh bed leveling

G1 Z0.2 F720
G1 Y-3 F1000 ; go outside print area
G92 E0
G1 X60 E9 F1000 ; intro line
G1 X100 E12.5 F1000 ; intro line

G92 E0
M221 S95
G21 ; set units to millimeters
G90 ; use absolute coordinates
M83 ; use relative distances for extrusion
M900 K0.04 ; Filament gcode LA 1.5
M900 K18 ; Filament gcode LA 1.0
M107
;LAYER_CHANGE
;Z:0.2
;HEIGHT:0.2
;BEFORE_LAYER_CHANGE
G92 E0.0
;0.2


G1 E-.8 F2100
M73 P0 R74
G1 Z.4 F720
;AFTER_LAYER_CHANGE
;0.2
G1 X44.191 Y44.145 F10800
G1 Z.2 F720
G1 E.8 F1500
M204 S800
;TYPE:Skirt/Brim
;WIDTH:0.65
G1 F1200
G1 X47.179 Y41.157 E.21331
G1 X49.022 Y40.393 E.10071
G1 X132.847 Y40.393 E4.23139
G1 X134.691 Y41.157 E.10076
G1 X137.678 Y44.145 E.21327
G1 X138.331 Y45.235 E.06414
G1 X139.562 Y49.445 E.22141
G1 X144.315 Y87.329 E1.92733
G1 X144.472 Y89.403 E.10499
G1 X144.432 Y91.562 E.109
G1 X144.294 Y92.971 E.07147
G1 X143.957 Y94.9 E.09885
G1 X143.138 Y97.731 E.14877
G1 X142.599 Y99.083 E.07347
G1 X141.737 Y100.841 E.09884
G1 X140.136 Y103.364 E.15084
G1 X138.911 Y104.893 E.0989
G1 X137.918 Y105.956 E.07343
G1 X136.798 Y107.006 E.0775
G1 X135.27 Y108.23 E.09883
G1 X132.747 Y109.832 E.15086
G1 X130.988 Y110.693 E.09886
G1 X129.675 Y111.219 E.0714
G1 X127.534 Y111.88 E.11311
G1 X125.416 Y112.312 E.10912
G1 X123.307 Y112.537 E.10706
G1 X120.643 Y112.537 E.13448
G1 X88.11 Y110.42 E1.6457
G1 X85.448 Y109.995 E.13608
G1 X81.959 Y108.967 E.18361
G1 X80.199 Y108.234 E.09624
G1 X79.489 Y107.792 E.04222
G1 X47.309 Y79.729 E2.15533
G1 X44.191 Y76.62 E.22227
G1 X43.539 Y75.529 E.06416
G1 X42.399 Y71.748 E.19935
G1 X42.288 Y70.995 E.03842
G1 X42.288 Y49.769 E1.07146
G1 X42.399 Y49.017 E.03837
G1 X43.539 Y45.235 E.1994
G1 X44.145 Y44.222 E.05959
M204 S1000
;WIPE_START
G1 F8640
G1 X46.582 Y41.76 E-.8
;WIPE_END
G1 Z.6 F720
G1 X46.999 Y45.927 F10800
G1 Z.2 F720
G1 E.8 F1500
M204 S800
G1 F1200
G1 X47.375 Y45.327 E.03574
G1 X48.462 Y44.265 E.07671
G1 X49.031 Y43.929 E.03336
G1 X49.656 Y43.668 E.03419
G1 X50.764 Y43.447 E.05703
G1 X131.176 Y43.453 E4.05911
G1 X132.141 Y43.646 E.04968
G1 X132.98 Y44.002 E.04601
G1 X133.693 Y44.491 E.04364
G1 X134.323 Y45.116 E.0448
G1 X134.893 Y45.972 E.05191
G1 X135.225 Y46.811 E.04555
G1 X135.383 Y47.679 E.04454
G1 X135.388 Y73.034 E1.27989
G1 X135.18 Y74.101 E.05487
G1 X134.843 Y74.89 E.04331
G1 X134.604 Y75.263 E.02236
G1 X135.708 Y76.292 E.07618
G1 X136.193 Y76.793 E.0352
G1 X136.933 Y77.633 E.05651
G1 X137.405 Y78.224 E.03818
G1 X138.029 Y79.084 E.05364
G1 X138.413 Y79.667 E.03524
G1 X139.006 Y80.67 E.05882
G1 X139.351 Y81.325 E.03737
G1 X139.809 Y82.3 E.05438
G1 X140.081 Y82.957 E.03589
G1 X140.475 Y84.055 E.05889
G1 X140.799 Y85.164 E.05832
G1 X140.967 Y85.858 E.03604
G1 X141.173 Y86.932 E.0552
G1 X141.281 Y87.682 E.03825
G1 X141.39 Y88.848 E.05911
G1 X141.428 Y89.988 E.05758
G1 X141.415 Y90.763 E.03913
G1 X141.341 Y91.913 E.05817
G1 X141.262 Y92.604 E.03511
G1 X141.085 Y93.709 E.05649
G1 X140.941 Y94.393 E.03528
G1 X140.666 Y95.462 E.05572
G1 X140.294 Y96.615 E.06116
G1 X139.811 Y97.836 E.06628
G1 X139.352 Y98.813 E.05449
G1 X139.035 Y99.417 E.03443
G1 X138.388 Y100.512 E.0642
G1 X137.678 Y101.551 E.06352
G1 X136.957 Y102.479 E.05932
G1 X136.502 Y103.007 E.03518
G1 X135.722 Y103.834 E.05738
G1 X135.219 Y104.317 E.0352
G1 X134.403 Y105.035 E.05487
G1 X133.487 Y105.75 E.05866
G1 X132.831 Y106.211 E.04047
G1 X131.958 Y106.765 E.05219
G1 X131.272 Y107.157 E.03988
G1 X130.188 Y107.704 E.06129
G1 X129.224 Y108.121 E.05302
G1 X128.531 Y108.385 E.03743
G1 X127.479 Y108.728 E.05586
G1 X126.791 Y108.917 E.03602
G1 X125.668 Y109.169 E.0581
G1 X124.994 Y109.287 E.03454
G1 X123.885 Y109.428 E.05643
G1 X123.191 Y109.485 E.03515
G1 X122.024 Y109.523 E.05894
G1 X121.295 Y109.511 E.0368
G1 X120.125 Y109.435 E.05918
G1 X119.013 Y109.296 E.05657
G1 X118.237 Y109.16 E.03977
G1 X117.2 Y108.927 E.05365
G1 X116.47 Y108.727 E.03821
G1 X115.388 Y108.374 E.05745
G1 X114.327 Y107.956 E.05756
G1 X113.662 Y107.657 E.03681
G1 X112.636 Y107.134 E.05813
G1 X112.027 Y106.786 E.03541
G1 X111.057 Y106.17 E.058
G1 X110.474 Y105.758 E.03604
G1 X109.604 Y105.082 E.05562
G1 X109.073 Y104.628 E.03527
G1 X108.256 Y103.861 E.05657
G1 X107.739 Y103.326 E.03756
G1 X106.998 Y102.484 E.05662
G1 X106.554 Y101.927 E.03596
G1 X105.897 Y101.02 E.05653
G1 X105.506 Y100.423 E.03602
G1 X104.813 Y99.247 E.0689
G1 X104.085 Y100.306 E.06487
G1 X103.433 Y101.143 E.05356
G1 X102.709 Y101.962 E.05518
G1 X101.95 Y102.72 E.05415
G1 X101.123 Y103.449 E.05565
G1 X100.323 Y104.072 E.05118
G1 X99.74 Y104.482 E.03598
G1 X98.881 Y105.025 E.0513
G1 X97.945 Y105.54 E.05393
G1 X97.024 Y105.977 E.05146
G1 X96.409 Y106.234 E.03365
G1 X95.434 Y106.585 E.05231
G1 X94.407 Y106.887 E.05404
G1 X93.714 Y107.053 E.03597
G1 X92.769 Y107.232 E.04855
G1 X91.729 Y107.367 E.05294
G1 X91.09 Y107.419 E.03236
G1 X89.956 Y107.453 E.05727
G1 X88.902 Y107.418 E.05323
G1 X87.852 Y107.32 E.05323
G1 X86.749 Y107.147 E.05636
G1 X85.609 Y106.891 E.05898
G1 X84.227 Y106.466 E.07299
G1 X83.44 Y106.028 E.04546
G1 X82.486 Y105.171 E.06473
G1 X81.831 Y104.139 E.0617
G1 X81.563 Y103.395 E.03992
G1 X81.421 Y102.571 E.04221
G1 X81.413 Y77.317 E1.27479
G1 X50.764 Y77.317 E1.54713
G1 X49.651 Y77.095 E.05729
G1 X48.961 Y76.8 E.03788
G1 X48.362 Y76.424 E.0357
G1 X47.299 Y75.337 E.07675
G1 X46.964 Y74.768 E.03333
G1 X46.702 Y74.143 E.03421
G1 X46.482 Y73.035 E.05702
G1 X46.488 Y47.671 E1.28035
G1 X46.704 Y46.618 E.05426
G1 X46.964 Y46.009 E.03343
M204 S1000
G1 X47.52 Y46.244 F10800
M204 S800
G1 F1200
G1 X47.87 Y45.68 E.03351
G1 X48.802 Y44.769 E.06579
G1 X49.321 Y44.464 E.03039
G1 X49.86 Y44.24 E.02946
G1 X50.794 Y44.054 E.04807
G1 X131.146 Y44.06 E4.05608
G1 X131.932 Y44.217 E.04046
G1 X132.714 Y44.549 E.04288
G1 X133.287 Y44.943 E.0351
G1 X133.836 Y45.48 E.03877
G1 X134.37 Y46.281 E.0486
G1 X134.634 Y46.952 E.0364
G1 X134.776 Y47.708 E.03883
G1 X134.781 Y73.005 E1.27696
G1 X134.609 Y73.893 E.04566
G1 X134.298 Y74.621 E.03996
G1 X133.786 Y75.376 E.04605
G1 X134.491 Y75.98 E.04686
G1 X135.286 Y76.729 E.05514
G1 X135.751 Y77.21 E.03377
G1 X136.473 Y78.029 E.05511
G1 X136.917 Y78.586 E.03596
G1 X137.533 Y79.435 E.05295
G1 X137.901 Y79.994 E.03378
G1 X138.48 Y80.972 E.05737
G1 X138.805 Y81.59 E.03525
G1 X139.251 Y82.539 E.05293
G1 X139.512 Y83.169 E.03442
G1 X139.895 Y84.235 E.05718
G1 X140.211 Y85.314 E.05675
G1 X140.372 Y85.98 E.03459
G1 X140.575 Y87.039 E.05443
G1 X140.677 Y87.746 E.03606
G1 X140.783 Y88.878 E.05739
G1 X140.821 Y90.001 E.05672
G1 X140.808 Y90.746 E.03761
G1 X140.737 Y91.851 E.05589
G1 X140.661 Y92.515 E.03374
G1 X140.489 Y93.592 E.05505
G1 X140.352 Y94.249 E.03388
G1 X140.08 Y95.301 E.05485
G1 X139.719 Y96.419 E.0593
G1 X139.257 Y97.586 E.06336
G1 X138.805 Y98.549 E.0537
G1 X138.501 Y99.128 E.03301
G1 X137.881 Y100.178 E.06155
G1 X137.193 Y101.186 E.06161
M73 P1 R74
G1 X136.491 Y102.088 E.0577
G1 X136.055 Y102.596 E.03379
G1 X135.295 Y103.402 E.05592
G1 X134.813 Y103.866 E.03377
G1 X134.009 Y104.573 E.05404
G1 X133.12 Y105.267 E.05693
G1 X132.5 Y105.702 E.03823
M73 Q1 S75
G1 X131.639 Y106.249 E.05149
G1 X130.992 Y106.618 E.0376
G1 X129.939 Y107.15 E.05955
G1 X128.989 Y107.561 E.05225
G1 X128.323 Y107.814 E.03596
G1 X127.297 Y108.148 E.05447
G1 X126.637 Y108.33 E.03456
G1 X125.543 Y108.575 E.05659
G1 X124.897 Y108.688 E.0331
G1 X123.816 Y108.825 E.055
G1 X123.149 Y108.879 E.03378
G1 X122.026 Y108.915 E.05672
G1 X121.326 Y108.904 E.03534
G1 X120.174 Y108.829 E.05827
G1 X119.11 Y108.696 E.05413
G1 X118.363 Y108.566 E.03827
G1 X117.353 Y108.34 E.05224
G1 X116.651 Y108.148 E.03674
G1 X115.602 Y107.805 E.05571
G1 X114.556 Y107.394 E.05673
G1 X113.918 Y107.106 E.03533
G1 X112.931 Y106.604 E.0559
G1 X112.346 Y106.27 E.034
G1 X111.401 Y105.669 E.05653
G1 X110.84 Y105.274 E.03463
G1 X109.993 Y104.616 E.05414
G1 X109.483 Y104.181 E.03384
G1 X108.687 Y103.433 E.05514
G1 X108.19 Y102.92 E.03606
G1 X107.459 Y102.088 E.05591
G1 X107.041 Y101.565 E.0338
G1 X106.401 Y100.681 E.05509
G1 X106.026 Y100.108 E.03457
G1 X105.464 Y99.156 E.0558
G1 X104.859 Y97.987 E.06644
G1 X103.944 Y99.453 E.08723
G1 X103.594 Y99.949 E.03064
G1 X102.96 Y100.762 E.05204
G1 X102.273 Y101.539 E.05235
G1 X101.542 Y102.271 E.05222
G1 X100.728 Y102.988 E.05476
G1 X99.957 Y103.588 E.04932
G1 X99.409 Y103.973 E.03381
G1 X98.564 Y104.506 E.05043
G1 X97.66 Y105.003 E.05207
G1 X96.771 Y105.425 E.04968
G1 X96.182 Y105.671 E.03222
G1 X95.237 Y106.011 E.0507
G1 X94.259 Y106.298 E.05145
G1 X93.594 Y106.458 E.03453
G1 X92.682 Y106.631 E.04686
G1 X91.658 Y106.764 E.05212
G1 X91.049 Y106.813 E.03084
G1 X89.966 Y106.846 E.05469
G1 X88.949 Y106.813 E.05136
G1 X87.918 Y106.717 E.05227
G1 X86.853 Y106.549 E.05442
G1 X85.776 Y106.308 E.05571
G1 X84.436 Y105.895 E.07078
G1 X83.816 Y105.551 E.03579
G1 X82.973 Y104.806 E.05679
G1 X82.39 Y103.9 E.05438
G1 X82.143 Y103.215 E.03676
G1 X82.024 Y102.497 E.03674
G1 X82.021 Y77.483 E1.26268
G1 X82.193 Y76.71 E.03997
G1 X50.794 Y76.71 E1.58499
G1 X49.858 Y76.524 E.04817
G1 X49.262 Y76.272 E.03266
G1 X48.714 Y75.929 E.03263
G1 X47.804 Y74.997 E.06575
G1 X47.498 Y74.478 E.03041
M73 Q1 S74
G1 X47.274 Y73.939 E.02946
G1 X47.089 Y73.005 E.04806
G1 X47.089 Y47.759 E1.27439
G1 X47.275 Y46.824 E.04812
G1 X47.485 Y46.327 E.02724
M204 S1000
G1 X48.044 Y46.564 F10800
M204 S800
G1 F1200
G1 X48.363 Y46.036 E.03114
G1 X49.144 Y45.272 E.05515
G1 X49.574 Y45.016 E.02526
G1 X50.065 Y44.812 E.02684
G1 X50.824 Y44.662 E.03905
G1 X131.114 Y44.667 E4.05295
G1 X131.777 Y44.805 E.03418
G1 X132.443 Y45.093 E.03663
G1 X132.917 Y45.425 E.02921
G1 X133.387 Y45.89 E.03337
G1 X133.817 Y46.534 E.03909
G1 X134.057 Y47.146 E.03318
G1 X134.174 Y47.788 E.03294
G1 X134.174 Y72.977 E1.27151
G1 X134.038 Y73.684 E.03634
G1 X133.752 Y74.353 E.03673
G1 X133.41 Y74.847 E.03033
G1 X132.829 Y75.428 E.04148
G1 X133.583 Y76.002 E.04784
G1 X134.08 Y76.427 E.03301
G1 X134.865 Y77.166 E.05442
G1 X135.31 Y77.627 E.03234
G1 X136.012 Y78.424 E.05361
G1 X136.43 Y78.948 E.03384
G1 X137.038 Y79.786 E.05226
G1 X137.39 Y80.322 E.03237
G1 X137.953 Y81.275 E.05587
G1 X138.258 Y81.854 E.03303
G1 X138.698 Y82.791 E.05225
G1 X138.943 Y83.381 E.03225
G1 X139.315 Y84.414 E.05542
G1 X139.622 Y85.464 E.05522
G1 X139.777 Y86.102 E.03314
G1 X139.978 Y87.147 E.05372
G1 X140.073 Y87.811 E.03386
G1 X140.177 Y88.907 E.05557
G1 X140.214 Y90.014 E.05591
G1 X140.202 Y90.714 E.03534
G1 X140.133 Y91.791 E.05448
G1 X140.061 Y92.426 E.03226
G1 X139.893 Y93.475 E.05363
G1 X139.762 Y94.104 E.03243
G1 X139.495 Y95.141 E.05405
G1 X139.145 Y96.223 E.0574
G1 X138.704 Y97.337 E.06048
G1 X138.259 Y98.285 E.05286
G1 X137.968 Y98.839 E.03159
G1 X137.363 Y99.86 E.05991
G1 X136.708 Y100.821 E.05871
G1 X136.026 Y101.699 E.05612
G1 X135.608 Y102.185 E.03236
G1 X134.869 Y102.97 E.05442
G1 X134.407 Y103.415 E.03238
G1 X133.615 Y104.112 E.05326
G1 X132.753 Y104.783 E.05514
G1 X132.169 Y105.194 E.03605
G1 X131.32 Y105.733 E.05076
G1 X130.711 Y106.08 E.03538
G1 X129.689 Y106.597 E.05781
G1 X128.754 Y107.002 E.05144
G1 X128.115 Y107.244 E.03449
G1 X127.116 Y107.569 E.05303
G1 X126.484 Y107.742 E.03308
G1 X125.417 Y107.981 E.0552
G1 X124.8 Y108.088 E.03161
G1 X123.747 Y108.222 E.05358
G1 X123.108 Y108.273 E.03236
G1 X122.014 Y108.308 E.05525
G1 X121.344 Y108.297 E.03383
G1 X120.24 Y108.226 E.05584
G1 X119.192 Y108.095 E.05331
G1 X118.488 Y107.972 E.03608
G1 X117.492 Y107.749 E.05152
G1 X116.832 Y107.568 E.03455
G1 X115.816 Y107.237 E.05394
G1 X114.785 Y106.831 E.05593
G1 X114.187 Y106.562 E.0331
G1 X113.225 Y106.073 E.05447
G1 X112.665 Y105.753 E.03256
G1 X111.744 Y105.169 E.05505
G1 X111.207 Y104.79 E.03318
G1 X110.381 Y104.149 E.05278
G1 X109.893 Y103.733 E.03237
G1 X109.107 Y102.995 E.05442
G1 X108.641 Y102.513 E.03384
G1 X107.929 Y101.704 E.0544
G1 X107.529 Y101.203 E.03236
G1 X106.896 Y100.331 E.05439
G1 X106.545 Y99.794 E.03238
G1 X105.99 Y98.853 E.05515
G1 X105.7 Y98.301 E.03148
G1 X104.889 Y96.535 E.0981
G1 X104.234 Y97.815 E.07258
G1 X103.947 Y98.317 E.02919
G1 X103.444 Y99.108 E.04732
G1 X103.11 Y99.582 E.02927
G1 X102.499 Y100.367 E.05021
G1 X101.837 Y101.117 E.0505
G1 X101.119 Y101.835 E.05126
G1 X100.334 Y102.526 E.05279
G1 X99.59 Y103.104 E.04756
G1 X99.067 Y103.471 E.03225
G1 X98.248 Y103.988 E.04889
G1 X97.392 Y104.459 E.04932
G1 X96.517 Y104.873 E.04886
G1 X95.969 Y105.102 E.02998
G1 X95.04 Y105.437 E.04985
G1 X94.095 Y105.714 E.04971
G1 X93.473 Y105.863 E.03229
G1 X92.578 Y106.033 E.04599
G1 X91.588 Y106.161 E.05039
G1 X91.008 Y106.208 E.02937
G1 X89.958 Y106.239 E.05303
G1 X88.979 Y106.207 E.04945
G1 X87.984 Y106.113 E.05045
G1 X86.957 Y105.951 E.05248
G1 X85.941 Y105.723 E.05256
G1 X84.696 Y105.346 E.06566
G1 X84.186 Y105.069 E.0293
G1 X83.456 Y104.436 E.04877
G1 X82.949 Y103.66 E.04679
G1 X82.725 Y103.037 E.03342
G1 X82.628 Y102.427 E.03118
G1 X82.628 Y77.523 E1.25713
G1 X82.974 Y76.103 E.07378
G1 X50.823 Y76.103 E1.62295
G1 X50.066 Y75.952 E.03897
M73 P1 R73
G1 X49.522 Y75.723 E.02979
G1 X49.07 Y75.436 E.02703
G1 X48.306 Y74.655 E.05515
G1 X48.05 Y74.225 E.02526
G1 X47.847 Y73.734 E.02682
G1 X47.696 Y72.976 E.03901
G1 X47.696 Y47.789 E1.27141
G1 X47.847 Y47.032 E.03897
G1 X48.009 Y46.646 E.02113
M204 S1000
G1 X48.567 Y46.878 F10800
M204 S800
G1 F1200
G1 X48.603 Y46.79 E.0048
G1 X48.857 Y46.391 E.02388
G1 X49.489 Y45.773 E.04462
G1 X49.828 Y45.568 E.02
G1 X50.27 Y45.385 E.02415
G1 X50.853 Y45.269 E.03001
G1 X131.08 Y45.274 E4.04977
G1 X131.615 Y45.391 E.02764
G1 X132.167 Y45.635 E.03047
G1 X132.541 Y45.902 E.0232
G1 X132.936 Y46.297 E.0282
G1 X133.266 Y46.791 E.02999
G1 X133.467 Y47.29 E.02716
G1 X133.567 Y47.817 E.02708
G1 X133.567 Y72.946 E1.26848
G1 X133.45 Y73.531 E.03011
G1 X133.209 Y74.079 E.03022
G1 X132.932 Y74.472 E.02427
G1 X132.482 Y74.913 E.0318
G1 X131.768 Y75.385 E.04321
G1 X133.195 Y76.469 E.09046
G1 X133.68 Y76.884 E.03222
G1 X134.444 Y77.603 E.05296
G1 X134.859 Y78.033 E.03017
G1 X135.542 Y78.809 E.05218
G1 X135.943 Y79.31 E.03239
G1 X136.542 Y80.136 E.05151
G1 X136.879 Y80.649 E.03098
G1 X137.427 Y81.577 E.0544
G1 X137.712 Y82.118 E.03087
G1 X138.146 Y83.042 E.05153
G1 X138.38 Y83.607 E.03087
G1 X138.74 Y84.611 E.05384
G1 X139.038 Y85.627 E.05345
G1 X139.185 Y86.237 E.03167
G1 X139.38 Y87.254 E.05227
